X: 117
T: REEL: Brenda Stubbert's
C: C: Jerry Holland; S: Various
C: Set Leaders: André, Anton, Sophie
Z: [Unedited]; seara at The Session
N: https://thesession.org/members/26966/sets/96708
R: Reel
M: 4/4
L: 1/8
Q: 1/2=100
K: Ador
|:A/A/A BA GAAB|A/A/A BA edde|G2 BA BGGB|c2 BA BGGB|
A/A/A BA GAAB|A/A/A Bd edda|gedB GABd|e2 dB eAAB:||
|:A/A/A a2 A/A/A g2|Aage ageg|G2 BA BGGB|c2 BA BGGB|
[1A/A/A a2 A/A/A g2|Aage agea|gedB GABd|e2 dB eAAG:|
[2A/A/A BA GAAB|A/A/A BA edda|gedB GABd|e2 dB eAAB||

